X: 1
T: Far Down Quickstep
P: piffero primo a0837
O: Bruce & Emmett
%R: jig, quickstep
S: http://ancients.sudburymuster.org/mus/med/pdf/fardownC0.pdf
Z: 2020 John Chambers <jc:trillian.mit.edu>
M: 6/8
L: 1/8
K: Ador
E |\
EA^G A2B | cBA BGE | G2E D2E | GAF GFG |\
DEF G2B | cBA Bcd | efg edB | A3- {B}A2 :|
|: (3(A/B/c/) |\
def g2f | gaf ged | efg a2^g | ab^g a=ge |\
def g2f | gaf ged | efg edB | A2z Te2 :|
z |:\
edB edB | edB AGE | G2E D2E | GAF GFG |\
DEF G2B | cBA Bcd | efg edB |1 A2z a3 :|2 A3- A2 |]
